X: 1
T: All Smiles
C: Susie Secco 2005
N: Why was this in a Dave Kaynor collection at natunelist.net?
S: https://natunelist.net/all-smiles/
S: https://secureservercdn.net/192.169.223.13/e65.5e6.myftpupload.com/wp-content/uploads/2018/03/All-Smiles-Susie-Secco.gif
R: jig
M: 6/8
L: 1/8
K: A
P:A
E |\
"A"A2A ABc | "F#m"B2A A2e | "Bm"d2c B2A | "D"F3 "E7"EFG |\
"A"A2A ABc | "F#m"B2A A2e | "Bm"d2c B2A | "E7"e3- e2 :|
P:B
|:e |\
"D"f2e "E7"efg | "A"a2A ABc | "Bm"B2c B2A | "D"F3 "E7"E2e |\
"D"f2e "E7"efg | "A"a2A ABc | "Bm"B2c B2A | "E7"e3- e2e ||
"D"f2e "E7"efg | "A"a2A ABc | "Bm"B2c B2A | "D"F3 "E7"E2E |\
"A"A2A ABc | "F#m"B2A A2e | "D"d2c "E7"B2A | "A"A3- A2 |]
